public/images/arrow-top.svg

<svg width="17" height="27" viewBox="0 0 17 27" fill="none" xmlns="http://www.w3.org/2000/svg">
<path fill-rule="evenodd" clip-rule="evenodd" d="M15.7632 11.4808C16.5833 11.4808 17.0547 10.548 16.5683 9.88771L9.58461 0.406925C9.18495 -0.135632 8.37399 -0.135632 7.97433 0.406925L0.9906 9.88771C0.504224 10.548 0.975662 11.4808 1.79574 11.4808L4.14339 11.4808C4.69567 11.4808 5.14339 11.9285 5.14339 12.4808L5.14339 25.7244C5.14339 26.2766 5.5911 26.7244 6.14339 26.7244L10.8562 26.7244C11.4084 26.7244 11.8562 26.2766 11.8562 25.7244L11.8562 12.4808C11.8562 11.9285 12.3039 11.4808 12.8562 11.4808L15.7632 11.4808Z" fill="black"/>
</svg>

<svg width="17" height="27" viewBox="0 0 17 27" fill="none" xmlns="http://www.w3.org/2000/svg"><path fill-rule="evenodd" clip-rule="evenodd" d="M15.763 11.48a1 1 0 0 0 .805-1.592L9.585.407a1 1 0 0 0-1.61 0L.99 9.887a1 1 0 0 0 .805 1.594h2.347a1 1 0 0 1 1 1v13.243a1 1 0 0 0 1 1h4.713a1 1 0 0 0 1-1V12.481a1 1 0 0 1 1-1h2.907z" fill="#000"/></svg>
